component-icons/svg/drawer.svg

<?xml version="1.0" encoding="utf-8"?>
<!-- Generator: Adobe Illustrator 24.2.3, SVG Export Plug-In . SVG Version: 6.00 Build 0)  -->
<svg version="1.1" id="Layer_1" xmlns="http://www.w3.org/2000/svg" xmlns:xlink="http://www.w3.org/1999/xlink" x="0px" y="0px"
	 width="24px" height="24px" viewBox="0 0 24 24" enable-background="new 0 0 24 24" xml:space="preserve">
<path d="M1,24h4V0H1V24z M23,3H7v2h14L23,3z M7,21h14l2-2H7V21z M7,13h14l2-2H7V13z M7,9h14l2-2H7V9z M7,17h14l2-2H7V17z"/>
</svg>

<svg id="Layer_1" data-name="Layer 1" xmlns="http://www.w3.org/2000/svg" viewBox="0 0 24 24">
  <defs>
    <style>
      .cls-1 {
        fill: gray;
      }
    </style>
  </defs>
  <title>drawer</title>
  <path class="cls-1" d="M1,24H5V0H1ZM23,3H7V5H21ZM7,21H21l2-2H7Zm0-8H21l2-2H7ZM7,9H21l2-2H7Zm0,8H21l2-2H7Z"/>
</svg>
